X: 3261
T: Beil.la La Curuxa
R: mazurka
M: 3/4
K: Dminor
d-d/e/ fd ec|dA d-d/A/ d2|g-g/f/ ed ef|
e2 e-e/f/ e-e/f/|g-g/f/ ge fg|f2 d-d/A/ d-d/e/|
f-f/e/ d^c de|1 BB A2- Ac:|2 d4- dd||
[K:Ddor]|A2B2c2|d2c2BA|B-B/c/ c-c/B/ cB|
B2 A2- Ad|A2B2c2|d2c2BA|
B2 _e2- ed|1 d4- dd:|2 d4- dA||
[K:Dmix]d2 f2 d2|e2 c-c/A/ c2|fg ge fg|
f2 d-d/A/ d-d/A/|d2 f2 d2|e2 c-c/A/ c2|
A2 B2 c2|1 d2- d_e dA:|2 d2- d_e d||

